src/lib/packages/icons/src/assets/filled/game-controller.svg

<svg width="24" height="24" viewBox="0 0 24 24" fill="none" xmlns="http://www.w3.org/2000/svg">
<path d="M16 7H12.75V6C12.75 5.59 13.09 5.25 13.5 5.25H14.5C15.74 5.25 16.75 4.24 16.75 3C16.75 2.59 16.41 2.25 16 2.25C15.59 2.25 15.25 2.59 15.25 3C15.25 3.41 14.91 3.75 14.5 3.75H13.5C12.26 3.75 11.25 4.76 11.25 6V7H8C5 7 3 9 3 13V17C3 19 4 21 6 21H6.25293C7.34393 21 8.36309 20.453 8.96509 19.543C8.96509 19.543 9.972 18 12 18C14.028 18 15.0339 19.552 15.0339 19.552C15.6369 20.457 16.653 21 17.74 21H18C20 21 21 19 21 17V13C21 9 19 7 16 7ZM10 13.75H8.75V15C8.75 15.414 8.414 15.75 8 15.75C7.586 15.75 7.25 15.414 7.25 15V13.75H6C5.586 13.75 5.25 13.414 5.25 13C5.25 12.586 5.586 12.25 6 12.25H7.25V11C7.25 10.586 7.586 10.25 8 10.25C8.414 10.25 8.75 10.586 8.75 11V12.25H10C10.414 12.25 10.75 12.586 10.75 13C10.75 13.414 10.414 13.75 10 13.75ZM14.75 15.25C14.198 15.25 13.75 14.802 13.75 14.25C13.75 13.698 14.198 13.25 14.75 13.25C15.302 13.25 15.75 13.698 15.75 14.25C15.75 14.802 15.302 15.25 14.75 15.25ZM17.25 12.751C16.698 12.751 16.25 12.303 16.25 11.751C16.25 11.199 16.698 10.751 17.25 10.751C17.802 10.751 18.25 11.199 18.25 11.751C18.25 12.303 17.802 12.751 17.25 12.751Z" fill="currentColor"/>
</svg>

<svg xmlns="http://www.w3.org/2000/svg" width="24" height="24" fill="none"><path fill="currentColor" d="M16 7h-3.25V6c0-.41.34-.75.75-.75h1c1.24 0 2.25-1.01 2.25-2.25 0-.41-.34-.75-.75-.75s-.75.34-.75.75-.34.75-.75.75h-1c-1.24 0-2.25 1.01-2.25 2.25v1H8c-3 0-5 2-5 6v4c0 2 1 4 3 4h.253c1.09 0 2.11-.547 2.712-1.457 0 0 1.007-1.543 3.035-1.543 2.028 0 3.034 1.552 3.034 1.552A3.252 3.252 0 0 0 17.74 21H18c2 0 3-2 3-4v-4c0-4-2-6-5-6Zm-6 6.75H8.75V15a.75.75 0 0 1-1.5 0v-1.25H6a.75.75 0 0 1 0-1.5h1.25V11a.75.75 0 0 1 1.5 0v1.25H10a.75.75 0 0 1 0 1.5Zm4.75 1.5a1 1 0 1 1 0-2 1 1 0 0 1 0 2Zm2.5-2.499a1 1 0 1 1 0-2 1 1 0 0 1 0 2Z"/></svg>
